!!!COM:	Bach, Johann Sebastian
!!!CDT:	1685/02/21/-1750/07/28/
!!!OTL@@DE:	Ach Gott, vom Himmel sieh darein
!!!OTL@EN:	Oh God, look down from Heaven
!!!OPR: Cantata BWV 153: Schau, lieber Gott, wie meine Feind
!!!SCT:	BWV 153/1
!!!PC#:	3
!!!AGN:	chorale
**kern	**kern	**kern	**kern
*ICvox	*ICvox	*ICvox	*ICvox
*Ibass	*Itenor	*Ialto	*Isoprn
*I"Bass	*I"Tenor	*I"Alto	*I"Soprano
*>[A,A,B]	*>[A,A,B]	*>[A,A,B]	*>[A,A,B]
*>norep[A,B]	*>norep[A,B]	*>norep[A,B]	*>norep[A,B]
*>A	*>A	*>A	*>A
*clefF4	*clefGv2	*clefG2	*clefG2
*k[f#]	*k[f#]	*k[f#]	*k[f#]
*a:dor	*a:dor	*a:dor	*a:dor
*M4/4	*M4/4	*M4/4	*M4/4
*met(c)	*met(c)	*met(c)	*met(c)
*MM100	*MM100	*MM100	*MM100
4E	4e	4g#	4b
=1	=1	=1	=1
4A	4e	4a	4cc
4B	4d	4g#	4b
4c	4e	4a	4a
8BL	8dL	8g#L	4ee
8AJ	8cJ	8aJ	.
=2	=2	=2	=2
4G#	4B	4b	8eeL
.	.	.	8ddJ
4A	8cL	8eL	4cc
.	8dJ	8f#J	.
4E;	4e;	4g#;	4b;
4BB	4f	4g#	4dd
=3	=3	=3	=3
8CL	4e	4a	4cc
8DJ	.	.	.
4E	8eL	4g#	4b
.	8dJ	.	.
4F	4c	8aL	4a
.	.	8gJ	.
8EL	4d	4f	8bL
8DJ	.	.	16ccL
.	.	.	16ddJJ
=4	=4	=4	=4
2E	8G#	2e	4cc
.	4A	.	.
.	.	.	4b
.	8G#	.	.
4AA;	4c;	4e;	4a;
=:|!	=:|!	=:|!	=:|!
*>B	*>B	*>B	*>B
4F#	4A	4d	4a
=5	=5	=5	=5
8GL	8GL	8dL	8bL
8F#J	8AJ	8d#J	8aJ
4E	4B	4e	4g
8BL	4B	4d#	4f#
8AJ	.	.	.
8GL	8BL	8eL	8eL
8F#J	8AJ	8d#J	8f#J
=6	=6	=6	=6
8EL	4B	8eL	4g
8DJ	.	8gJ	.
4C	4c	8f#L	4a
.	.	8eJ	.
4BB;	4F#;	4d#;	4b;
4E	8eL	4B	4g
.	8dnJ	.	.
=7	=7	=7	=7
4F	8cL	4A	8aL
.	8dJ	.	8bJ
8CL	4e	4a	4cc
8DJ	.	.	.
4E	4e	4g#	4b
8AAL	8eL	4a	8ccL
8BBJ	8dJ	.	8bJ
=8	=8	=8	=8
8CL	4c	4e	4a
8DJ	.	.	.
4E	4B	4e	4g#
4AA;	4c;	4e;	4a;
4A	4c	4e	4a
=9	=9	=9	=9
4G#	4B	4e	4ee
8AL	4A	4e	4cc
8GJ	.	.	.
8FL	4A	4f	4dd
8EJ	.	.	.
8DL	4B-	4g	4ee
8C#J	.	.	.
=10	=10	=10	=10
4D	8AL	8f#XL	4dd
.	8EJ	8g#J	.
4D#	4F#X	4a	4cc
4E;	4G#;	4e;	4b;
==	==	==	==
*-	*-	*-	*-
!!!hum2abc: -Q ''
!!!title: @{PC#}. @{OTL@@DE}
!!!YOR1: 371 vierstimmige Choralges&auml;nge von Johann Sebastian Bach, 
!!!YOR2: 4th ed. by Alfred D&ouml;rffel (Leipzig: Breitkopf und H&auml;rtel, 
!!!YOR2: c.1875). 178 pp. Plate "V.A.10".  reprint: J.S. Bach, 371 Four-Part 
!!!YOR4: Chorales (New York: Associated Music Publishers, Inc., c.1940).
!!!SMS: B&H, 4th ed, Alfred D&ouml;rffel, c.1875, plate V.A.10
!!!PC#2: 7 (Budapest/Imre, 1982) with first part written with repeats.
!!!EED:  Craig Stuart Sapp
!!!EEV:  2009/05/22
